frontend/public/svg/logos/spotify.svg

<svg width="178" height="176" viewBox="0 0 178 176" fill="none" xmlns="http://www.w3.org/2000/svg">
<g clip-path="url(#clip0)">
<path d="M28.8076 73.3287C29.0554 73.4009 29.3141 73.4284 29.5716 73.4094C29.7271 73.4199 29.8853 73.4311 30.0435 73.4311C30.288 73.4363 30.5315 73.3976 30.7621 73.3162C31.4448 73.0491 32.0878 72.6901 32.6734 72.249C44.3188 63.6817 57.9929 58.4473 73.3145 56.6936C78.6295 56.0098 83.9767 55.6094 89.3344 55.4941C109.532 55.3536 126.286 56.7674 142.301 64.205C142.954 64.5266 143.644 64.7665 144.356 64.9196C145.729 65.2185 147.164 65.0037 148.39 64.3158C149.615 63.6281 150.546 62.5149 151.007 61.187C151.896 58.5754 150.962 56.2808 148.381 54.7252C147.512 54.2509 146.583 53.8938 145.62 53.6629C145.239 53.5539 144.859 53.4456 144.488 53.3203C120.608 45.244 95.5256 43.5768 67.8072 48.225C55.4773 50.1849 43.7691 54.9744 33.6008 62.218C31.2701 64.0273 29.205 66.1549 27.466 68.5387C27.1629 68.8977 26.9469 69.3217 26.835 69.7779C26.7233 70.234 26.7186 70.7099 26.8215 71.168C26.9644 71.6563 27.2179 72.1053 27.5623 72.48C27.9068 72.8548 28.3329 73.1449 28.8076 73.3287Z" fill="black"/>
<path d="M136.57 89.541C136.127 89.3809 135.693 89.2266 135.247 89.1006C112.723 82.7866 90.462 81.3519 69.0785 84.8344C61.2147 86.1156 53.4817 88.3242 46.8514 90.2925C43.8395 91.1871 41.1156 93.0157 38.4811 94.7838L37.8989 95.1776C37.3068 95.6673 36.8287 96.2803 36.498 96.9734C36.1674 97.6671 35.992 98.4245 35.9844 99.1924C36.0048 100.16 36.6269 101.012 37.2314 101.835C37.4664 102.157 37.7092 102.491 37.8996 102.809C37.9595 102.909 38.0444 102.992 38.146 103.05C38.2476 103.108 38.3624 103.138 38.4791 103.137C38.5692 103.138 38.6584 103.12 38.7416 103.085C40.3405 102.415 41.814 101.752 43.2383 101.11C45.8577 99.8514 48.5608 98.7744 51.3282 97.8863C69.5681 92.4893 88.7411 90.9974 107.597 93.5066C113.373 94.3822 119.101 95.5577 124.755 97.0298C127.709 97.7439 130.757 98.4823 133.777 99.1216C137.715 99.9538 140.548 98.8046 141.35 96.044C141.922 94.0737 141.558 91.3473 136.57 89.541Z" fill="black"/>
<path d="M123.895 123.008C122.363 121.977 120.718 121.127 118.991 120.476C100.964 113.942 84.6095 112.85 68.99 117.14C63.6169 118.615 58.4502 120.96 53.8939 123.029C52.1993 123.797 50.8748 125.427 49.7104 126.864L49.3698 127.284C49.0658 127.79 48.9138 128.373 48.9319 128.963C48.9501 129.554 49.1376 130.126 49.4722 130.613C50.2861 131.467 51.3901 131.985 52.5668 132.066C52.6529 132.066 52.739 132.061 52.8247 132.053C53.7299 131.903 54.6007 131.592 55.3956 131.134C55.8177 130.913 56.2521 130.715 56.6965 130.543C57.8182 130.138 58.9359 129.715 60.0543 129.292C62.8838 128.168 65.7681 127.186 68.6966 126.352C82.519 122.676 96.7045 123.403 112.067 128.569C113.922 129.193 115.78 129.727 117.93 130.346C118.99 130.65 120.113 130.973 121.328 131.334C121.422 131.362 121.522 131.369 121.619 131.354C121.717 131.34 121.81 131.304 121.893 131.249C122.145 131.082 122.483 130.904 122.836 130.716C123.961 130.229 124.947 129.471 125.706 128.509C126.903 126.679 126.193 124.519 123.895 123.008Z" fill="black"/>
<path d="M176.853 80.6431C174.826 62.8603 167.688 46.0462 156.302 32.2364C146.917 20.7216 136.824 12.5141 125.442 7.15638C116.56 2.87684 106.831 0.648501 96.9718 0.63623C93.9435 0.640766 90.9178 0.838165 87.9144 1.22703C75.4151 2.84753 62.7451 6.47439 48.0556 12.6472C28.185 21.0024 14.354 35.3598 6.9459 55.3092C1.75162 69.0101 -0.250412 83.7154 1.09201 98.3058C2.65343 114.698 6.59802 127.405 13.5027 138.277C23.4791 153.973 36.0446 164.312 51.9261 169.87C61.5539 173.244 72.1511 174.938 85.268 175.205C92.9865 175.205 100.172 174.272 107.124 173.367L108.441 173.197C123.613 171.235 136.496 165.76 147.834 156.472C158.787 147.488 166.632 136.438 171.146 123.636C176.572 108.237 178.436 94.1689 176.853 80.6431ZM158.944 129.54C150.359 146.924 135.921 158.328 116.014 163.434C113.623 164.049 111.151 164.492 108.539 164.959C107.244 165.188 105.889 165.432 104.47 165.706C98.276 166.638 89.9208 166.78 85.3179 166.78C83.2675 166.78 81.9574 166.749 81.9207 166.749C69.8283 166.602 59.4234 164.551 50.1211 160.474C37.7249 155.042 27.8161 145.873 19.8383 132.448C15.0202 124.353 11.9623 114.769 10.225 102.291C7.99276 86.4208 9.94438 70.2427 15.8865 55.3579C22.1395 39.4981 33.3884 27.4633 49.3145 19.5984C52.99 17.7777 67.9414 13.3968 71.8708 12.5974C77.4031 11.4937 83.0115 10.8183 88.6475 10.5771C110.945 10.0442 119.752 13.6338 133.369 24.0322C147.63 34.9182 157.68 48.6016 163.245 64.6976C170.807 86.6203 169.364 108.437 158.944 129.536V129.54Z" fill="black"/>
</g>
<defs>
<clipPath id="clip0">
<rect width="177.211" height="175.242" fill="white" transform="translate(0.314087 0.176758)"/>
</clipPath>
</defs>
</svg>

<svg xmlns="http://www.w3.org/2000/svg" width="178" height="176" fill="none" viewBox="0 0 178 176"><g fill="#000" clip-path="url(#a)"><path d="M28.808 73.329c.247.072.506.1.764.08.155.01.313.022.472.022a2 2 0 0 0 .718-.115 8 8 0 0 0 1.911-1.067c11.646-8.567 25.32-13.802 40.641-15.555a151 151 0 0 1 16.02-1.2c20.198-.14 36.952 1.273 52.967 8.711a9 9 0 0 0 2.055.715 5.746 5.746 0 0 0 6.651-3.733c.889-2.612-.045-4.906-2.626-6.462a11.2 11.2 0 0 0-2.761-1.062c-.381-.11-.761-.217-1.132-.343-23.88-8.076-48.962-9.743-76.68-5.095A80.8 80.8 0 0 0 33.6 62.218a31.5 31.5 0 0 0-6.135 6.32 3.05 3.05 0 0 0-.645 2.63 3.32 3.32 0 0 0 1.987 2.16M136.57 89.541c-.443-.16-.877-.314-1.323-.44-22.524-6.314-44.785-7.75-66.169-4.267-7.863 1.282-15.596 3.49-22.227 5.459-3.011.894-5.735 2.723-8.37 4.49l-.582.395a5.28 5.28 0 0 0-1.915 4.014c.02.968.643 1.82 1.247 2.643.235.322.478.656.669.974a.68.68 0 0 0 .58.328q.136.001.262-.052c1.599-.67 3.072-1.333 4.496-1.975a63 63 0 0 1 8.09-3.224 135.4 135.4 0 0 1 56.269-4.38 168 168 0 0 1 17.158 3.524c2.954.714 6.002 1.452 9.022 2.092 3.938.832 6.771-.317 7.573-3.078.572-1.97.208-4.697-4.78-6.503m-12.675 33.467a24 24 0 0 0-4.904-2.532c-18.027-6.534-34.381-7.626-50.001-3.336-5.373 1.475-10.54 3.82-15.096 5.889-1.695.768-3.02 2.398-4.184 3.835l-.34.42a3.08 3.08 0 0 0 .102 3.329 4.72 4.72 0 0 0 3.095 1.453q.129 0 .258-.013a7.7 7.7 0 0 0 2.57-.919q.635-.332 1.301-.591c1.122-.405 2.24-.828 3.358-1.251a91 91 0 0 1 8.643-2.94c13.822-3.676 28.007-2.949 43.37 2.217 1.855.624 3.713 1.158 5.863 1.777 1.06.304 2.183.627 3.398.988a.67.67 0 0 0 .565-.085c.252-.167.59-.345.943-.533a7.4 7.4 0 0 0 2.87-2.207c1.197-1.83.487-3.99-1.811-5.501"/><path d="M176.853 80.643a92.57 92.57 0 0 0-20.551-48.407c-9.385-11.514-19.478-19.722-30.86-25.08a65.8 65.8 0 0 0-28.47-6.52 71 71 0 0 0-9.058.591c-12.499 1.62-25.169 5.247-39.858 11.42C28.185 21.002 14.354 35.36 6.946 55.31a96.4 96.4 0 0 0-5.854 42.997c1.561 16.392 5.506 29.099 12.41 39.971 9.977 15.696 22.543 26.035 38.424 31.593 9.628 3.374 20.225 5.068 33.342 5.335 7.719 0 14.904-.933 21.856-1.838l1.317-.17c15.172-1.962 28.055-7.437 39.393-16.725 10.953-8.984 18.798-20.034 23.312-32.836 5.426-15.399 7.29-29.467 5.707-42.993m-17.909 48.897c-8.585 17.384-23.023 28.788-42.93 33.894-2.391.615-4.863 1.058-7.475 1.525-1.295.229-2.65.473-4.069.747-6.194.932-14.55 1.074-19.152 1.074-2.05 0-3.36-.031-3.397-.031-12.093-.147-22.498-2.198-31.8-6.275-12.396-5.432-22.305-14.601-30.283-28.026-4.818-8.095-7.876-17.679-9.613-30.157a92 92 0 0 1 5.662-46.933c6.253-15.86 17.501-27.895 33.428-35.76 3.675-1.82 18.626-6.201 22.556-7a110 110 0 0 1 16.777-2.02c22.297-.534 31.104 3.056 44.721 13.454 14.261 10.886 24.311 24.57 29.876 40.666 7.562 21.922 6.119 43.739-4.301 64.838z"/></g><defs><clipPath id="a"><path fill="#fff" d="M.314.177h177.211v175.242H.315z"/></clipPath></defs></svg>
